X:193
T:Amours qui bien set enchanter
T:Les miracles de Notre-Dame
C:Gautier de Coincy (1177-1236)
M:3/4
L:1/8
Q:1/4=168
%beats in anacrusis = 4
K:F 
V:1
C2 | C4C2 | C4DE | F2E2D2 | 
C4E2 | G4F2 | E4D2 | F2E2D2 | 
C4G2 | G4F2 | G2A2B2 | A2G2F2 | 
G4A2 | c4B2 | A4G2 | B2A2G2 | 
F4G2 | A4G2 | F4E2 | D4C2 | 
G2A2C2 | D2C2E2 | G2F2E2 | D4C2 | 
E4F2 | E6 | E4D2 | D6 | C6 |]






